styles/2/Numix/128/places/default-folder-ubuntu.svg

<?xml version="1.0" encoding="UTF-8" standalone="no"?>
<svg
   xmlns:dc="http://purl.org/dc/elements/1.1/"
   xmlns:cc="http://creativecommons.org/ns#"
   xmlns:rdf="http://www.w3.org/1999/02/22-rdf-syntax-ns#"
   xmlns:svg="http://www.w3.org/2000/svg"
   xmlns="http://www.w3.org/2000/svg"
   xmlns:sodipodi="http://sodipodi.sourceforge.net/DTD/sodipodi-0.dtd"
   xmlns:inkscape="http://www.inkscape.org/namespaces/inkscape"
   width="128px"
   height="128px"
   viewBox="0 0 128 128"
   version="1.1"
   id="svg26827"
   inkscape:version="0.91 r"
   sodipodi:docname="default-folder-ubuntu.svg">
  <metadata
     id="metadata26840">
    <rdf:RDF>
      <cc:Work
         rdf:about="">
        <dc:format>image/svg+xml</dc:format>
        <dc:type
           rdf:resource="http://purl.org/dc/dcmitype/StillImage" />
      </cc:Work>
    </rdf:RDF>
  </metadata>
  <defs
     id="defs26838" />
  <sodipodi:namedview
     pagecolor="#ffffff"
     bordercolor="#666666"
     borderopacity="1"
     objecttolerance="10"
     gridtolerance="10"
     guidetolerance="10"
     inkscape:pageopacity="0"
     inkscape:pageshadow="2"
     inkscape:window-width="640"
     inkscape:window-height="480"
     id="namedview26836" />
  <g
     id="surface1">
    <path
       style=" stroke:none;fill-rule:nonzero;fill:rgb(91.372549%,69.019608%,50.196078%);fill-opacity:1;"
       d="M 18 16 C 15.070312 16 12 19.023438 12 22 L 12 24 L 6 24 C 3.058594 24 0 26.992188 0 30 L 0 106 C 0 110 2 112 6 112 L 122 112 C 125.136719 112 128 109.285156 128 106 L 128 40 C 128 36.988281 125.089844 34 122 34 L 116 34 L 116 22 C 116 19.078125 113.09375 16 110 16 Z M 18 16 "
       id="path26830" />
    <path
       style=" stroke:none;fill-rule:nonzero;fill:rgb(0%,0%,0%);fill-opacity:0.321569;"
       d="M 18 16 C 15.070312 16 12 19.023438 12 22 L 12 24 L 6 24 C 3.058594 24 0 26.992188 0 30 L 0 106 C 0 110 2 112 6 112 L 122 112 C 125.136719 112 128 109.285156 128 106 L 128 40 C 128 36.988281 125.089844 34 122 34 L 116 34 L 116 22 C 116 19.078125 113.09375 16 110 16 Z M 6 28 L 74 28 C 75.179688 28 76 29.03125 76 30 L 76 38 L 122 38 C 123.011719 38 124 39.015625 124 40 L 124 106 C 124 107.042969 123.042969 108 122 108 L 6 108 C 5.070312 108 4 107.207031 4 106 L 4 30 C 4 29.015625 5.03125 28 6 28 Z M 6 28 "
       id="path26832" />
    <path
       style=" stroke:none;fill-rule:nonzero;fill:rgb(0%,0%,0%);fill-opacity:0.321569;"
       d="M 86 44 C 82.6875 44 80 46.6875 80 50 C 80 53.3125 82.6875 56 86 56 C 89.3125 56 92 53.3125 92 50 C 92 46.6875 89.3125 44 86 44 Z M 64 48 C 59.414062 48 55.140625 49.265625 51.5 51.5 L 57.4375 57.4375 C 59.441406 56.535156 61.660156 56 64 56 C 72.15625 56 78.886719 62.109375 79.875 70 L 87.875 70 C 87.550781 66.160156 86.351562 62.550781 84.4375 59.4375 C 83.6875 59.777344 82.878906 60 82 60 C 78.6875 60 76 57.3125 76 54 C 76 53.121094 76.222656 52.3125 76.5625 51.5625 C 72.910156 49.3125 68.605469 48 64 48 Z M 48.3125 53.9375 C 44.554688 57.214844 41.78125 61.601562 40.625 66.625 C 42.617188 67.601562 44 69.632812 44 72 C 44 74.367188 42.617188 76.398438 40.625 77.375 C 41.871094 82.789062 44.910156 87.539062 49.125 90.875 L 54.875 85.125 C 50.722656 82.234375 48 77.441406 48 72 C 48 66.980469 50.320312 62.496094 53.9375 59.5625 Z M 32 66 C 28.6875 66 26 68.6875 26 72 C 26 75.3125 28.6875 78 32 78 C 35.3125 78 38 75.3125 38 72 C 38 68.6875 35.3125 66 32 66 Z M 79.875 74 C 78.886719 81.890625 72.15625 88 64 88 C 62.109375 88 60.308594 87.601562 58.625 87 L 52.5625 93.0625 C 55.964844 94.921875 59.847656 96 64 96 C 67.027344 96 69.894531 95.460938 72.5625 94.4375 C 72.222656 93.6875 72 92.878906 72 92 C 72 88.6875 74.6875 86 78 86 C 79.609375 86 81.046875 86.65625 82.125 87.6875 C 85.367188 83.945312 87.445312 79.226562 87.875 74 Z M 82 90 C 78.6875 90 76 92.6875 76 96 C 76 99.3125 78.6875 102 82 102 C 85.3125 102 88 99.3125 88 96 C 88 92.6875 85.3125 90 82 90 Z M 82 90 "
       id="path26834" />
  </g>
</svg>

<svg xmlns="http://www.w3.org/2000/svg" viewBox="0 0 128 128">
 <g>
  <path d="m 18 16 c -2.93 0 -6 3.02 -6 6 l 0 2 l -6 0 c -2.941 0 -6 2.992 -6 6 l 0 76 c 0 4 2 6 6 6 l 116 0 c 3.137 0 6 -2.715 6 -6 l 0 -66 c 0 -3.01 -2.91 -6 -6 -6 l -6 0 l 0 -12 c 0 -2.922 -2.906 -6 -6 -6 m -92 0" style="fill:#e8b07f;fill-opacity:1;stroke:none;fill-rule:nonzero"/>
  <path d="m 18 16 c -2.93 0 -6 3.02 -6 6 l 0 2 l -6 0 c -2.941 0 -6 2.992 -6 6 l 0 76 c 0 4 2 6 6 6 l 116 0 c 3.137 0 6 -2.715 6 -6 l 0 -66 c 0 -3.01 -2.91 -6 -6 -6 l -6 0 l 0 -12 c 0 -2.922 -2.906 -6 -6 -6 m -104 12 l 68 0 c 1.18 0 2 1.031 2 2 l 0 8 l 46 0 c 1.012 0 2 1.016 2 2 l 0 66 c 0 1.043 -0.957 2 -2 2 l -116 0 c -0.93 0 -2 -0.793 -2 -2 l 0 -76 c 0 -0.984 1.031 -2 2 -2 m 0 0" style="fill:#000;fill-opacity:0.322;stroke:none;fill-rule:nonzero"/>
  <path d="m 86 44 c -3.313 0 -6 2.688 -6 6 c 0 3.313 2.688 6 6 6 c 3.313 0 6 -2.688 6 -6 c 0 -3.313 -2.688 -6 -6 -6 m -22 4 c -4.586 0 -8.859 1.266 -12.5 3.5 l 5.938 5.938 c 2 -0.902 4.223 -1.438 6.563 -1.438 c 8.156 0 14.887 6.109 15.875 14 l 8 0 c -0.324 -3.84 -1.523 -7.449 -3.438 -10.563 c -0.75 0.34 -1.559 0.563 -2.438 0.563 c -3.313 0 -6 -2.688 -6 -6 c 0 -0.879 0.223 -1.688 0.563 -2.438 c -3.652 -2.25 -7.957 -3.563 -12.563 -3.563 m -15.688 5.938 c -3.758 3.277 -6.531 7.664 -7.688 12.688 c 1.992 0.977 3.375 3.01 3.375 5.375 c 0 2.367 -1.383 4.398 -3.375 5.375 c 1.246 5.414 4.285 10.164 8.5 13.5 l 5.75 -5.75 c -4.152 -2.891 -6.875 -7.684 -6.875 -13.12 c 0 -5.02 2.32 -9.504 5.938 -12.438 m -21.938 6.438 c -3.313 0 -6 2.688 -6 6 c 0 3.313 2.688 6 6 6 c 3.313 0 6 -2.688 6 -6 c 0 -3.313 -2.688 -6 -6 -6 m 47.875 8 c -0.988 7.891 -7.719 14 -15.875 14 c -1.891 0 -3.691 -0.398 -5.375 -1 l -6.06 6.06 c 3.402 1.859 7.285 2.938 11.438 2.938 c 3.03 0 5.895 -0.539 8.563 -1.563 c -0.34 -0.75 -0.563 -1.559 -0.563 -2.438 c 0 -3.313 2.688 -6 6 -6 c 1.609 0 3.047 0.656 4.125 1.688 c 3.242 -3.742 5.32 -8.461 5.75 -13.688 m -5.875 16 c -3.313 0 -6 2.688 -6 6 c 0 3.313 2.688 6 6 6 c 3.313 0 6 -2.688 6 -6 c 0 -3.313 -2.688 -6 -6 -6 m 0 0" style="fill:#000;fill-opacity:0.322;stroke:none;fill-rule:nonzero"/>
 </g>
</svg>
